X:1
T:Linstead Market
B:Singing Together, Summer 1978, BBC Publications
F:http://www.folkinfo.org/songs
M:4/4
K:D
AAA F2 A dc|B2 B2 A2 A2|G F2 E2 F G2|A6 z2|
w:Car-ry me ac-kee go a Lin-stead Mar-Ket. Not a quat-ty would sell.
AAA F2 A dc|B2 B2 A2 A2|G F2 E2 F E2|D4 A4|
w:Car-ry me ac-kee go a Lin-stead Mar-Ket. Not a quat-ty would sell. Oh,
F6 GF|E2 FE D4|C D2 E2 F G2|A6 z2|
w:Lord! Not a mite, not a bite, What a Sa-tur-day night!
F6 GF|E2 FE D4|C D2 E2 F G2|D6 z2|
w:Lord! Not a mite, not a bite, What a Sa-tur-day night!